X: 566
T:Feargal O'Gara's
R:reel
S:cassette [arr. Mason Daring, Daring Music ASCAP. Marblehead MA]
N:Flutes and whistles were:
N:Cormac Breatnach, Mark Roberts and Billy Novich.
N:The pipers were: Ronan Browne and Declan Masterson.
N:I need glasses to read the rest of the liner notes.
N:Also all mistakes are mine. This is "one of the flute parts" only.
D:Molloy, Peoples, Brady;
D:The Secret of Roan Inish, Daring cassette 3015 Daring Records 1995
D:(Rounder).
N:Posted to the woodenflute mailing list, August 2002
Z:lesl
M:C|
K:D
DB|ADFD ADFB|BFAF EFAc|d2cd {Bc}BAFA|(3GEF FD EA(3Bcd|
AD~D2 AGFB|BFAF EFAc|d2cd {Bc}BAFA|GFEG {E}F2DE|
FD~Dd ADFA|BFAF EFAc|d2cd {Bc}BAFA|GEFD EA(3Bcd|
{G}AD~D2 AGFB|BFAF EFAc|d2cd {Bc}BAFA|(3AGF EG {E}F2De||
fd~d2 fdgd|f{e}fgf edBc|dB{c}BA Bcde|(3fed gf e2de|
fd~d2 fdgd|f{e}fgf edBc|(3dcB BA BAFA|GFEG FADe|
fd~d2 fdgd|f{e}fgf edBc|dB{c}BA Bcde|(3fed gf e2de|
fgaf edBc|defd BAFD|AD~D2 ADFA|BFAF D2DB||
<end>
<start>
